src/main/resources/icons/taskGroup_dark.svg

<!-- Copyright 2000-2022 JetBrains s.r.o. and contributors. Use of this source code is governed by the Apache 2.0 license. -->
<svg width="16" height="16" viewBox="0 0 16 16" fill="none" xmlns="http://www.w3.org/2000/svg">
<path d="M1 3.86667C1 2.83574 1.7835 2 2.75 2H6.03823C6.29871 2 6.5489 2.10163 6.73559 2.28327L8.5 4L13 4C14.1046 4 15 4.89543 15 6V7.38947C14.1372 6.82692 13.1068 6.5 12 6.5C8.96243 6.5 6.5 8.96243 6.5 12C6.5 12.7056 6.63286 13.3801 6.87494 14H2.75C1.7835 14 1 13.1643 1 12.1333V3.86667Z" fill="#43454A"/>
<path d="M6.03823 3L8.09379 5H13C13.5523 5 14 5.44772 14 6V6.87494C14.3525 7.01259 14.6872 7.18555 15 7.38947V6C15 4.89543 14.1046 4 13 4L8.5 4L6.73559 2.28327C6.5489 2.10163 6.29871 2 6.03823 2H2.75C1.7835 2 1 2.83574 1 3.86667V12.1333C1 13.1643 1.7835 14 2.75 14H6.87494C6.75003 13.6801 6.65419 13.3457 6.59069 13H2.75C2.3956 13 2 12.6738 2 12.1333V3.86667C2 3.32624 2.3956 3 2.75 3H6.03823Z" fill="#CED0D6"/>
<path d="M12 13C12.5523 13 13 12.5523 13 12C13 11.4477 12.5523 11 12 11C11.4477 11 11 11.4477 11 12C11 12.5523 11.4477 13 12 13Z" fill="#548AF7"/>
<path fill-rule="evenodd" clip-rule="evenodd" d="M13.1216 15.6756C13.0484 15.8707 12.8619 16 12.6534 16H11.3464C11.138 16 10.9515 15.8707 10.8783 15.6756L10.6288 15.0102C10.5449 14.7865 10.3143 14.6534 10.0786 14.6926L9.37765 14.8092C9.17206 14.8434 8.96681 14.7464 8.8626 14.5659L8.2091 13.4341C8.10489 13.2536 8.12357 13.0273 8.25599 12.8664L8.70742 12.3177C8.85925 12.1331 8.85925 11.8669 8.70742 11.6824L8.25597 11.1336C8.12355 10.9727 8.10487 10.7464 8.20908 10.5659L8.86258 9.43405C8.96679 9.25355 9.17204 9.15663 9.37763 9.19083L10.0786 9.30742C10.3143 9.34664 10.5449 9.21353 10.6288 8.98976L10.8783 8.32444C10.9515 8.12929 11.138 8 11.3464 8H12.6534C12.8619 8 13.0484 8.12929 13.1216 8.32444L13.3711 8.98976C13.455 9.21353 13.6856 9.34664 13.9213 9.30742L14.6222 9.19083C14.8278 9.15663 15.0331 9.25355 15.1373 9.43405L15.7908 10.5659C15.895 10.7464 15.8763 10.9727 15.7439 11.1336L15.2925 11.6824C15.1406 11.8669 15.1406 12.1331 15.2925 12.3177L15.7439 12.8664C15.8763 13.0273 15.895 13.2536 15.7908 13.4341L15.1373 14.5659C15.0331 14.7464 14.8278 14.8434 14.6222 14.8092L13.9213 14.6926C13.6856 14.6534 13.455 14.7865 13.3711 15.0102L13.1216 15.6756ZM11.6929 15H12.3069L12.4348 14.6591C12.6865 13.9878 13.3781 13.5885 14.0854 13.7061L14.4445 13.7659L14.7515 13.2341L14.5202 12.953C14.0647 12.3993 14.0647 11.6007 14.5202 11.047L14.7515 10.7659L14.4445 10.2341L14.0854 10.2939C13.3781 10.4115 12.6865 10.0122 12.4348 9.34088L12.3069 9H11.6929L11.5651 9.34088C11.3134 10.0122 10.6217 10.4115 9.91449 10.2939L9.55536 10.2341L9.24836 10.7659L9.47966 11.047C9.93517 11.6007 9.93517 12.3993 9.47966 12.953L9.24838 13.2341L9.55538 13.7659L9.91449 13.7061C10.6217 13.5885 11.3134 13.9878 11.5651 14.6591L11.6929 15Z" fill="#548AF7"/>
<path fill-rule="evenodd" clip-rule="evenodd" d="M12.3069 15H11.6929L11.5651 14.6591C11.3134 13.9878 10.6217 13.5885 9.91449 13.7061L9.55537 13.7659L9.24837 13.2341L9.47966 12.953C9.93517 12.3993 9.93517 11.6007 9.47966 11.047L9.24835 10.7659L9.55535 10.2341L9.91449 10.2939C10.6217 10.4115 11.3134 10.0122 11.5651 9.34088L11.6929 9H12.3069L12.4348 9.34088C12.6865 10.0122 13.3781 10.4115 14.0854 10.2939L14.4445 10.2341L14.7515 10.7659L14.5202 11.047C14.0647 11.6007 14.0647 12.3993 14.5202 12.953L14.7515 13.2341L14.4445 13.7659L14.0854 13.7061C13.3781 13.5885 12.6865 13.9878 12.4348 14.6591L12.3069 15ZM13 12C13 12.5523 12.5523 13 12 13C11.4477 13 11 12.5523 11 12C11 11.4477 11.4477 11 12 11C12.5523 11 13 11.4477 13 12Z" fill="#25324D"/>
</svg>

<svg xmlns="http://www.w3.org/2000/svg" width="16" height="16" fill="none"><path fill="#43454A" d="M1 3.867C1 2.836 1.784 2 2.75 2h3.288a1 1 0 0 1 .698.283L8.5 4H13a2 2 0 0 1 2 2v1.39A5.5 5.5 0 0 0 6.875 14H2.75C1.784 14 1 13.164 1 12.133z"/><path fill="#CED0D6" d="m6.038 3 2.056 2H13a1 1 0 0 1 1 1v.875q.53.208 1 .514V6a2 2 0 0 0-2-2H8.5L6.736 2.283A1 1 0 0 0 6.038 2H2.75C1.784 2 1 2.836 1 3.867v8.266C1 13.164 1.784 14 2.75 14h4.125a5.5 5.5 0 0 1-.284-1H2.75c-.354 0-.75-.326-.75-.867V3.867c0-.54.396-.867.75-.867z"/><path fill="#548AF7" d="M12 13a1 1 0 1 0 0-2 1 1 0 0 0 0 2"/><path fill="#548AF7" fill-rule="evenodd" d="M13.122 15.676a.5.5 0 0 1-.469.324h-1.307a.5.5 0 0 1-.468-.324l-.25-.666a.5.5 0 0 0-.55-.317l-.7.116a.5.5 0 0 1-.515-.243l-.654-1.132a.5.5 0 0 1 .047-.568l.451-.548a.5.5 0 0 0 0-.636l-.451-.548a.5.5 0 0 1-.047-.568l.654-1.132a.5.5 0 0 1 .515-.243l.7.116a.5.5 0 0 0 .55-.317l.25-.666A.5.5 0 0 1 11.346 8h1.307a.5.5 0 0 1 .469.324l.25.666a.5.5 0 0 0 .55.317l.7-.116a.5.5 0 0 1 .515.243l.654 1.132a.5.5 0 0 1-.047.568l-.451.548a.5.5 0 0 0 0 .636l.45.548a.5.5 0 0 1 .048.568l-.654 1.132a.5.5 0 0 1-.515.243l-.7-.116a.5.5 0 0 0-.55.317zM11.692 15h.615l.128-.34a1.5 1.5 0 0 1 1.65-.954l.36.06.306-.532-.23-.281a1.5 1.5 0 0 1 0-1.906l.23-.281-.306-.532-.36.06a1.5 1.5 0 0 1-1.65-.953L12.307 9h-.614l-.128.34a1.5 1.5 0 0 1-1.65.954l-.36-.06-.307.532.232.281a1.5 1.5 0 0 1 0 1.906l-.232.281.307.532.36-.06a1.5 1.5 0 0 1 1.65.953z" clip-rule="evenodd"/><path fill="#25324D" fill-rule="evenodd" d="M12.307 15h-.614l-.128-.34a1.5 1.5 0 0 0-1.65-.954l-.36.06-.307-.532.232-.281a1.5 1.5 0 0 0 0-1.906l-.232-.281.307-.532.36.06a1.5 1.5 0 0 0 1.65-.953L11.693 9h.614l.128.34a1.5 1.5 0 0 0 1.65.954l.36-.06.306.532-.23.281a1.5 1.5 0 0 0 0 1.906l.23.281-.306.532-.36-.06a1.5 1.5 0 0 0-1.65.953zM13 12a1 1 0 1 1-2 0 1 1 0 0 1 2 0" clip-rule="evenodd"/></svg>
